X:1
T:Jamie's Paper
M:C
L:1/8
R:Highland Schottische
B:Kerr - Merry Melodies, vol. 3 (c. 1880's, No. 204)
Z:AK/Fiddler's Companion
K:G
G>A (B<d) e>d (e<g)|A>GB>G (F<A)D2| E>FG>A B>^c d2|(B<g)f>e (B<e) e2:|
|:g>ab>g e<g d<B|g>ab>g (f<a)d2|g>ab>g e<g d<B|d>ed>c (B<G) G2:||

